X: 16368
T: Gurteen Cross, The
R: polka
M: 2/4
K: Gmajor
GB AB/A/|Gg e/f/g/e/|dB AG/A/|BB/A/ G/F/E/D/|
GB AB/A/|Gg e/f/g/e/|dB AG/A/|BG G3/2:|
Bd g>d|Bd g>d|Bd ge|f2 f>g|
ag e/f/g/e/|dB AG/A/|Be d/B/A/B/|G2- G3/2:|

